svgs/regular/mountain.svg

<svg xmlns="http://www.w3.org/2000/svg" viewBox="0 0 512 512"><!--! Font Awesome Pro 6.0.0-alpha3 by @fontawesome - https://fontawesome.com License - https://fontawesome.com/license (Commercial License) --><path d="M503.2 393.8L280.1 44.25C274.9 36.08 265.4 32 256 32C246.6 32 237.1 36.08 231.9 44.25L8.807 393.8c-11.11 17.41-11.75 39.42-1.666 57.45C17.07 468.1 35.92 480 56.31 480h399.4c20.39 0 39.24-11.03 49.18-28.77C514.9 433.2 514.3 411.2 503.2 393.8zM256 95.74L327.7 208H256c-7.547 0-14.67 3.562-19.2 9.594L208 256L178.7 216.9L256 95.74zM462.1 427.8C461.5 430.3 458.7 432 455.7 432H56.31c-2.996 0-5.857-1.654-7.283-4.201c-1.461-2.609-1.373-5.672 .2344-8.189L151.1 260.1l37.72 50.29C193.3 316.4 200.5 320 208 320s14.67-3.562 19.2-9.594L268 256h90.3l104.4 163.6C464.3 422.1 464.4 425.2 462.1 427.8z"/></svg>

<svg xmlns="http://www.w3.org/2000/svg" viewBox="0 0 512 512"><!-- Font Awesome Pro 6.0.0-alpha2 by @fontawesome - https://fontawesome.com License - https://fontawesome.com/license (Commercial License) --><path d="M503.193 393.783L280.074 44.246C274.865 36.082 265.433 32 256 32C246.568 32 237.136 36.082 231.927 44.246L8.806 393.783C-2.307 411.193 -2.946 433.207 7.14 451.234C17.072 468.973 35.921 480 56.314 480H455.685C476.078 480 494.929 468.973 504.861 451.234C514.945 433.193 514.306 411.18 503.193 393.783ZM256 95.742L327.658 208H256C248.453 208 241.328 211.562 236.796 217.594L208 256L178.668 216.891L256 95.742ZM462.98 427.783C461.544 430.346 458.681 432 455.685 432H56.314C53.318 432 50.457 430.346 49.031 427.799C47.57 425.189 47.658 422.127 49.265 419.609L151.076 260.113L188.796 310.406C193.328 316.438 200.453 320 208 320S222.671 316.438 227.203 310.406L268 256H358.296L462.742 419.623C464.345 422.133 464.427 425.193 462.98 427.783Z"/></svg>
